src/assets/images/illustrations/info-blue.svg

<svg width="173" height="166" viewBox="0 0 173 166" fill="none" xmlns="http://www.w3.org/2000/svg">
<circle cx="90" cy="83" r="83" fill="#EBF7FA"/>
<g clip-path="url(#clip0_1884_5655)">
<path d="M57.4015 141.33C57.8383 142.468 58.2864 143.76 58.019 144.955C57.6914 146.414 56.4374 147.195 55.304 147.817C54.9274 148.022 54.4943 148.23 54.1027 148.037C53.869 147.892 53.6718 147.695 53.5265 147.46C49.1653 141.504 45.1214 135.318 41.4121 128.929C41.7209 129.46 50.2955 123.823 52.3591 127.034C53.2102 128.361 53.6659 131.523 54.2684 133.1C55.3002 135.839 56.3445 138.583 57.4015 141.33Z" fill="#65C2CC"/>
<path d="M114.301 90.9007C113.578 90.8097 113.172 90.3396 113.194 89.7633C113.236 89.1226 113.691 88.7473 114.463 88.7246C114.571 88.7189 114.679 88.7189 114.787 88.7246C120.5 89.3615 126.224 89.8619 131.959 90.241C135.593 90.4761 139.223 90.8059 142.853 91.0637C143.606 91.1167 144.36 91.0864 144.943 91.6968L145 92.2162C144.844 92.5257 144.594 92.7773 144.287 92.9347C143.979 93.0921 143.63 93.1472 143.29 93.0919C140.149 92.9024 137.009 92.7659 133.876 92.5763C128.487 92.2503 123.098 91.8788 117.732 91.2874C116.587 91.1547 115.439 91.0523 114.301 90.9007Z" fill="#65C2CC"/>
<path d="M16.7799 114.413C16.8101 113.894 16.5728 113.378 16.7498 112.855C18.1243 111.649 19.4724 110.41 20.8921 109.25C28.0459 103.419 34.6272 96.9097 40.5456 89.8126C44.4582 85.0585 48.1298 80.149 51.003 74.6746C53.4508 70.0153 55.8081 65.3257 57.1487 60.1887C57.6759 58.1605 58.1542 56.1133 59.1634 54.2518C59.5588 53.5239 60.0107 52.8264 60.8956 52.6065C61.1065 52.7392 61.0576 52.9325 61.0237 53.1334C60.5774 56.1441 60.4261 59.1917 60.5718 62.2322C60.6609 64.4778 60.8733 66.7167 61.2082 68.9387C61.5848 71.6645 62.5187 74.2462 63.4676 76.8166C64.1003 78.5264 64.6877 80.2552 65.2865 81.9801C65.3806 82.2531 65.4861 82.4843 65.8137 82.4578C65.8137 82.4578 65.8137 82.4806 65.8137 82.4957C65.584 82.7005 65.6442 82.9279 65.7685 83.2009C66.5744 84.9638 67.5271 86.647 68.4309 88.3606C70.8334 92.91 74.0494 96.8414 77.2616 100.788C78.2099 102.004 79.235 103.158 80.3306 104.242C81.2526 105.369 82.2477 106.434 83.3093 107.43C85.297 109.476 87.4276 111.377 89.6848 113.117C92.8788 115.59 96.2551 117.816 99.7845 119.774C100.312 120.054 100.888 120.252 101.445 120.487C100.993 121.021 100.334 121.108 99.7318 121.139C95.5894 121.347 91.4735 121.787 87.3613 122.276C86.7399 122.352 86.1224 122.485 85.4972 122.534C80.9784 122.871 76.4595 122.993 71.9406 123.501C68.7736 123.88 65.6179 124.293 62.4885 124.903C61.6827 125.066 60.2291 125.282 58.8734 125.521H58.8282C57.8216 125.599 56.8293 125.808 55.8759 126.143C55.743 126.136 55.6097 126.148 55.4805 126.181C53.1043 126.67 52.6449 127.064 50.3327 127.804C47.6063 128.672 44.9289 129.669 42.2401 130.651C42.1621 130.687 42.0866 130.729 42.0142 130.776C40.5796 131.248 39.1716 131.798 37.7966 132.425C37.7327 132.439 37.6699 132.456 37.6083 132.478C35.2396 133.43 32.999 134.658 30.7283 135.814C30.4179 135.839 30.1059 135.799 29.8117 135.696C29.5175 135.594 29.2475 135.431 29.0186 135.219C27.7722 134.285 26.5861 133.272 25.4675 132.186C23.3103 130.061 21.4676 127.635 19.9959 124.983C18.8984 122.953 18.0052 120.818 17.3297 118.61C16.8888 117.258 16.7023 115.834 16.7799 114.413Z" fill="#9FD8DE"/>
<path d="M99.7884 119.759C96.2656 117.8 92.8956 115.574 89.7075 113.102C87.4504 111.361 85.3198 109.461 83.3321 107.415C82.2705 106.419 81.2754 105.354 80.3534 104.226C81.6042 101.983 83.0363 99.846 84.6351 97.8384C85.682 96.5305 86.8192 95.2984 87.9113 94.0473C88.0958 93.835 88.2502 93.5962 88.4197 93.3687C88.9264 93.042 89.2859 92.5285 89.4211 91.9382C89.5562 91.3479 89.4563 90.7277 89.1427 90.2107C87.2786 86.9503 85.2301 83.8227 82.6543 81.0779C81.5929 79.8979 80.4517 78.7933 79.2388 77.772C78.4856 77.1503 77.5819 76.8129 76.6028 77.2337C76.2862 77.4221 76.0036 77.6631 75.7668 77.9464C72.6852 79.8726 69.3689 81.389 65.9005 82.4578H65.8478C65.5202 82.4844 65.4147 82.2531 65.3206 81.9801C64.7218 80.2552 64.1344 78.5264 63.5017 76.8166C62.5452 74.2462 61.6189 71.6645 61.2423 68.9387C60.9074 66.7167 60.695 64.4778 60.6059 62.2322C60.4602 59.1917 60.6115 56.1442 61.0578 53.1335C61.0917 52.9325 61.1406 52.7544 60.9297 52.6065C61.1142 52.3866 61.3327 52.6065 61.5398 52.5534C63.4791 52.1478 65.2189 52.8302 66.9323 53.6036C70.9209 55.4756 74.6721 57.8227 78.1053 60.5944C80.4555 62.4228 82.6672 64.425 84.7217 66.5844C89.6602 71.8049 94.0539 77.5215 97.834 83.6445C99.7573 86.7714 101.326 90.1057 102.511 93.5848C103.599 96.7731 104.202 100.056 104.737 103.366C104.868 104.196 104.759 105.064 104.899 105.906C105.14 107.385 104.917 108.863 104.899 110.338C104.827 112.275 104.551 114.199 104.074 116.078C103.841 117.144 103.445 118.167 102.899 119.11C102.522 119.736 101.905 119.986 101.46 120.471C100.892 120.236 100.316 120.039 99.7884 119.759Z" fill="#BCE3EE"/>
<path d="M0.161721 125.548C0.346243 124.596 0.481804 123.546 1.32157 122.894C3.20444 121.461 5.08731 120.005 7.08316 118.724C9.5083 117.207 11.9146 115.63 14.3586 114.133C15.1137 113.623 15.9142 113.185 16.7498 112.825C16.5728 113.348 16.8101 113.864 16.7799 114.383C16.6992 115.802 16.8818 117.224 17.3185 118.576C17.9939 120.784 18.8871 122.919 19.9846 124.949C21.4564 127.601 23.2991 130.027 25.4562 132.152C26.5748 133.238 27.7609 134.251 29.0073 135.185C29.2362 135.397 29.5062 135.56 29.8004 135.662C30.0946 135.765 30.4066 135.805 30.717 135.78C30.4302 136.19 30.049 136.525 29.6061 136.754C28.7098 137.285 27.7948 137.789 26.9211 138.354C23.193 140.762 19.2427 142.786 15.5297 145.212C13.8502 146.312 12.3213 146.501 10.5439 145.364C9.3426 144.606 8.04342 143.961 6.93629 143.048C4.77852 141.262 3.38519 138.896 2.14626 136.428C1.28421 134.667 0.691331 132.784 0.387662 130.844C0.082637 129.092 -0.184727 127.33 0.161721 125.548Z" fill="#BCE3EE"/>
<path d="M106.488 34.0868C103.592 39.6484 100.628 45.138 97.3484 50.4797C96.6969 51.5374 96.0868 52.6217 95.4165 53.668C95.2608 53.9201 95.0132 54.1008 94.7269 54.1717C94.4405 54.2425 94.138 54.1978 93.8839 54.0471C93.6505 53.8814 93.4882 53.6329 93.4295 53.3515C93.3708 53.0702 93.4201 52.7769 93.5676 52.5307C93.7107 52.235 93.8801 51.9544 94.0458 51.6739C95.473 49.2741 96.9341 46.897 98.3275 44.4707C100.963 39.8986 103.385 35.209 106.171 30.7279C106.394 30.3488 106.62 30.0227 107.09 29.9697C107.27 29.9502 107.452 29.9824 107.615 30.0624C107.777 30.1425 107.914 30.2672 108.009 30.4221C108.105 30.5771 108.154 30.756 108.153 30.9382C108.152 31.1204 108.099 31.2985 108.002 31.452C107.55 32.3808 106.951 33.2035 106.488 34.0868Z" fill="#65C2CC"/>
<path d="M105.9 67.589C106.653 67.0734 107.406 66.5616 108.197 66.1029C112.573 63.5477 117.175 61.4474 121.675 59.1348C121.767 59.0948 121.863 59.0631 121.961 59.04C122.167 58.9878 122.384 59.0069 122.577 59.0942C122.77 59.1816 122.929 59.3322 123.027 59.5215C123.137 59.7019 123.179 59.9166 123.145 60.1258C123.11 60.3349 123.001 60.5243 122.838 60.6588C122.557 60.8976 122.248 61.1024 121.92 61.2692C116.956 63.9533 111.831 66.3379 107.094 69.4353C106.416 69.8789 105.768 69.7765 105.411 69.2571C105.053 68.7377 105.188 68.0819 105.9 67.589Z" fill="#65C2CC"/>
<path d="M112.381 106.994C112.61 107.062 112.831 107.154 113.04 107.271C115.524 108.518 117.943 109.895 120.285 111.396C120.649 111.589 120.989 111.826 121.298 112.101C121.434 112.229 121.529 112.396 121.568 112.579C121.608 112.763 121.591 112.954 121.52 113.128C121.457 113.292 121.35 113.435 121.21 113.541C121.07 113.647 120.904 113.711 120.73 113.727C120.357 113.734 119.993 113.609 119.702 113.374C117.164 111.815 114.547 110.391 111.861 109.109C111.703 109.039 111.556 108.946 111.424 108.833C111.243 108.676 111.12 108.462 111.075 108.225C111.03 107.989 111.066 107.744 111.177 107.531C111.288 107.317 111.467 107.148 111.686 107.051C111.905 106.953 112.15 106.933 112.381 106.994Z" fill="#65C2CC"/>
<path d="M76.5274 51.5298C76.5266 51.6562 76.5002 51.7812 76.45 51.897C76.3997 52.0129 76.3265 52.1173 76.235 52.2038C76.1434 52.2903 76.0353 52.3572 75.9173 52.4003C75.7992 52.4435 75.6737 52.462 75.5483 52.4548C75.0136 52.4548 74.6746 52.053 74.5918 51.0976C74.7123 49.7935 74.8403 48.186 75.0211 46.5862C75.0231 46.4441 75.055 46.304 75.1145 46.1752C75.1741 46.0463 75.26 45.9316 75.3666 45.8386C75.4733 45.7455 75.5983 45.6762 75.7335 45.6351C75.8686 45.5941 76.0108 45.5823 76.1508 45.6005C76.2912 45.6224 76.4257 45.6725 76.5465 45.7477C76.6673 45.823 76.7719 45.9219 76.8541 46.0385C76.9362 46.1552 76.9943 46.2872 77.0249 46.4269C77.0554 46.5665 77.0579 46.7109 77.032 46.8515C76.904 48.4135 76.7044 49.9717 76.5274 51.5298Z" fill="#65C2CC"/>
<path d="M65.8627 82.4503C69.331 81.3814 72.6474 79.865 75.7289 77.9388C75.7704 77.9843 75.8607 78.0336 75.8532 78.0753C75.6536 79.8989 76.7156 81.222 77.6721 82.5451C79.5286 85.1117 81.7089 87.4129 83.7726 89.8051C84.6763 90.8552 85.5086 91.9622 86.6044 92.838C86.8419 93.0613 87.1282 93.2253 87.4402 93.3169C87.7522 93.4084 88.0812 93.4249 88.4007 93.3649C88.2312 93.5924 88.0768 93.8312 87.8923 94.0435C86.8002 95.3136 85.663 96.5457 84.6161 97.8347C83.0173 99.8422 81.5852 101.979 80.3344 104.223C79.2399 103.138 78.2148 101.984 77.2654 100.769C74.0532 96.8224 70.8372 92.8759 68.4347 88.3417C67.5309 86.6281 66.5782 84.9297 65.7723 83.182C65.648 82.909 65.5878 82.6815 65.8175 82.4768C65.8307 82.461 65.8459 82.447 65.8627 82.4351V82.4503Z" fill="#65C2CC"/>
<path d="M86.6044 92.8341C85.5086 91.9622 84.6763 90.8551 83.7726 89.8012C81.7089 87.4166 79.5399 85.1116 77.657 82.545C76.7005 81.2219 75.6386 79.8912 75.8381 78.0753C75.8381 78.0336 75.7553 77.9843 75.7139 77.9388C75.9507 77.6555 76.2333 77.4145 76.5499 77.2261C77.5478 76.8052 78.4327 77.1426 79.1859 77.7644C80.3988 78.7857 81.54 79.8903 82.6014 81.0703C85.1772 83.815 87.2257 86.9427 89.0898 90.2031C89.4034 90.7201 89.5033 91.3402 89.3682 91.9306C89.233 92.5209 88.8735 93.0344 88.3668 93.3611C88.0525 93.4155 87.7301 93.3962 87.4244 93.3048C87.1188 93.2134 86.8382 93.0524 86.6044 92.8341Z" fill="#65C2CC"/>
</g>
<defs>
<clipPath id="clip0_1884_5655">
<rect width="145" height="118.113" fill="white" transform="translate(0 30)"/>
</clipPath>
</defs>
</svg>

<svg width="173" height="166" fill="none" xmlns="http://www.w3.org/2000/svg"><circle cx="90" cy="83" r="83" fill="#EBF7FA"/><g clip-path="url(#a)"><path d="M57.401 141.33c.437 1.138.885 2.43.618 3.625-.328 1.459-1.582 2.24-2.715 2.862-.377.205-.81.413-1.201.22a1.78 1.78 0 0 1-.577-.577 208.925 208.925 0 0 1-12.114-18.531c.309.531 8.883-5.106 10.947-1.895.851 1.327 1.307 4.489 1.91 6.066 1.031 2.739 2.075 5.483 3.133 8.23ZM114.301 90.9c-.723-.09-1.129-.56-1.107-1.137.042-.64.497-1.016 1.269-1.038.108-.006.216-.006.324 0a382.906 382.906 0 0 0 17.172 1.516c3.634.235 7.264.565 10.894.823.753.053 1.507.022 2.09.633l.057.52a1.62 1.62 0 0 1-1.71.876c-3.141-.19-6.281-.327-9.414-.517-5.389-.326-10.778-.697-16.144-1.289-1.145-.132-2.293-.235-3.431-.386Z" fill="#65C2CC"/><path d="M16.78 114.413c.03-.519-.207-1.035-.03-1.558 1.374-1.206 2.722-2.445 4.142-3.605a144.313 144.313 0 0 0 19.654-19.437c3.912-4.755 7.584-9.664 10.457-15.138 2.448-4.66 4.805-9.35 6.146-14.486.527-2.029 1.005-4.076 2.014-5.937.396-.728.848-1.426 1.733-1.646.21.133.162.326.128.527a46.782 46.782 0 0 0-.452 9.1c.089 2.245.301 4.484.636 6.706.377 2.726 1.31 5.307 2.26 7.878.632 1.71 1.22 3.438 1.819 5.163.094.273.2.504.527.478v.038c-.23.205-.17.432-.045.705.805 1.763 1.758 3.446 2.662 5.16 2.402 4.549 5.618 8.48 8.83 12.427a36.016 36.016 0 0 0 3.07 3.454 33.181 33.181 0 0 0 2.978 3.188 59.745 59.745 0 0 0 6.376 5.687 79.476 79.476 0 0 0 10.1 6.657c.527.28 1.103.478 1.66.713-.452.534-1.111.621-1.713.652-4.143.208-8.258.648-12.37 1.137-.622.076-1.24.209-1.865.258-4.519.337-9.037.459-13.556.967-3.167.379-6.323.792-9.453 1.402-.805.163-2.259.379-3.615.618h-.045a11.61 11.61 0 0 0-2.952.622 1.317 1.317 0 0 0-.395.038c-2.377.489-2.836.883-5.148 1.623-2.727.868-5.404 1.865-8.093 2.847a1.803 1.803 0 0 0-.226.125 41.195 41.195 0 0 0-4.217 1.649 1.534 1.534 0 0 0-.189.053c-2.368.952-4.609 2.18-6.88 3.336a2.256 2.256 0 0 1-1.71-.595 36.646 36.646 0 0 1-3.55-3.033 31.705 31.705 0 0 1-5.472-7.203 34.82 34.82 0 0 1-2.666-6.373 11.516 11.516 0 0 1-.55-4.197Z" fill="#9FD8DE"/><path d="M99.788 119.759a79.535 79.535 0 0 1-10.08-6.657 59.863 59.863 0 0 1-6.376-5.687 33.075 33.075 0 0 1-2.979-3.189 46.996 46.996 0 0 1 4.282-6.388c1.047-1.307 2.184-2.54 3.276-3.79.185-.213.34-.452.509-.68.506-.326.866-.84 1.001-1.43a2.33 2.33 0 0 0-.278-1.727c-1.864-3.26-3.913-6.388-6.489-9.133a34.37 34.37 0 0 0-3.415-3.306c-.753-.622-1.657-.96-2.636-.538-.317.188-.6.43-.836.712a41.886 41.886 0 0 1-9.867 4.512h-.052c-.328.026-.433-.205-.527-.478-.6-1.725-1.187-3.454-1.82-5.163-.956-2.57-1.882-5.152-2.259-7.878a61.308 61.308 0 0 1-.636-6.707c-.146-3.04.005-6.088.452-9.099.034-.2.083-.379-.128-.527.184-.22.403 0 .61-.053 1.94-.405 3.679.277 5.392 1.05a54.963 54.963 0 0 1 11.173 6.991 59.908 59.908 0 0 1 6.617 5.99 105.371 105.371 0 0 1 13.112 17.06 49.332 49.332 0 0 1 4.677 9.94c1.088 3.19 1.691 6.472 2.226 9.782.131.83.022 1.698.162 2.54.241 1.479.018 2.957 0 4.432a27.475 27.475 0 0 1-.825 5.74 10.544 10.544 0 0 1-1.175 3.032c-.377.626-.994.876-1.439 1.361-.568-.235-1.144-.432-1.672-.712ZM.162 125.548c.184-.952.32-2.002 1.16-2.654 1.882-1.433 3.765-2.889 5.761-4.17 2.425-1.517 4.832-3.094 7.276-4.591.755-.51 1.555-.948 2.39-1.308-.176.523.061 1.039.03 1.558-.08 1.419.103 2.841.54 4.193a34.812 34.812 0 0 0 2.666 6.373 31.711 31.711 0 0 0 5.471 7.203 36.646 36.646 0 0 0 3.551 3.033 2.256 2.256 0 0 0 1.71.595c-.287.41-.668.745-1.11.974-.897.531-1.812 1.035-2.686 1.6-3.728 2.408-7.678 4.432-11.391 6.858-1.68 1.1-3.209 1.289-4.986.152-1.201-.758-2.5-1.403-3.608-2.316-2.157-1.786-3.55-4.152-4.79-6.62a19.594 19.594 0 0 1-1.758-5.584c-.305-1.752-.573-3.514-.226-5.296Z" fill="#BCE3EE"/><path d="M106.488 34.087c-2.896 5.561-5.86 11.051-9.14 16.393-.651 1.057-1.261 2.142-1.931 3.188a1.123 1.123 0 0 1-1.533.38 1.137 1.137 0 0 1-.316-1.517c.143-.296.312-.577.478-.857 1.427-2.4 2.888-4.777 4.281-7.203 2.636-4.572 5.058-9.262 7.844-13.743.223-.38.449-.705.919-.758a.957.957 0 0 1 .919.452.969.969 0 0 1-.007 1.03c-.452.929-1.051 1.751-1.514 2.635ZM105.9 67.589c.753-.516 1.506-1.027 2.297-1.486 4.376-2.555 8.978-4.656 13.478-6.968.092-.04.188-.072.286-.095a.936.936 0 0 1 1.066.482.879.879 0 0 1-.189 1.137c-.281.239-.59.443-.918.61-4.964 2.684-10.089 5.069-14.826 8.166-.678.444-1.326.341-1.683-.178-.358-.52-.223-1.175.489-1.668ZM112.381 106.994c.229.068.45.16.659.277a79.674 79.674 0 0 1 7.245 4.125c.364.193.704.43 1.013.705a.922.922 0 0 1 .222 1.027.94.94 0 0 1-.79.599 1.59 1.59 0 0 1-1.028-.353 84.622 84.622 0 0 0-7.841-4.265 1.782 1.782 0 0 1-.437-.276 1.068 1.068 0 0 1 .262-1.782c.219-.098.464-.118.695-.057ZM76.527 51.53a.939.939 0 0 1-.61.87.92.92 0 0 1-.369.055c-.534 0-.873-.402-.956-1.357.12-1.304.248-2.912.43-4.512a1.014 1.014 0 0 1 .345-.747 1 1 0 0 1 .784-.239 1.057 1.057 0 0 1 .703.438 1.075 1.075 0 0 1 .178.814c-.128 1.562-.328 3.12-.505 4.678ZM65.863 82.45a41.89 41.89 0 0 0 9.866-4.511c.041.045.132.095.124.136-.2 1.824.863 3.147 1.82 4.47 1.856 2.567 4.036 4.868 6.1 7.26.903 1.05 1.736 2.157 2.831 3.033a2.073 2.073 0 0 0 1.797.527c-.17.227-.324.466-.509.678-1.092 1.27-2.229 2.503-3.276 3.792a46.935 46.935 0 0 0-4.282 6.388 36.565 36.565 0 0 1-3.069-3.454c-3.212-3.947-6.428-7.893-8.83-12.427-.904-1.714-1.857-3.412-2.663-5.16-.124-.273-.184-.5.045-.705a.239.239 0 0 1 .046-.042v.015Z" fill="#65C2CC"/><path d="M86.604 92.834c-1.095-.872-1.928-1.979-2.831-3.033-2.064-2.384-4.233-4.69-6.116-7.256-.956-1.323-2.018-2.654-1.819-4.47 0-.041-.083-.09-.124-.136.237-.283.52-.524.836-.713.998-.42 1.883-.083 2.636.538A34.37 34.37 0 0 1 82.6 81.07c2.576 2.745 4.625 5.873 6.489 9.133a2.33 2.33 0 0 1-.723 3.158 2.062 2.062 0 0 1-1.763-.527Z" fill="#65C2CC"/></g><defs><clipPath id="a"><path fill="#fff" transform="translate(0 30)" d="M0 0h145v118.113H0z"/></clipPath></defs></svg>
